X: 14071
T: Freddy Kimmel's
R: hornpipe
M: 4/4
K: Dmajor
AG|:FAfe dcBA|GBef gfed|cBAa geBc|(3ded (3cdc (3BcB AG|
(3FGA fe dcBA|GBef gfed|cBAa geBc|1 (3ded (3cde d2 AG:|2 (3ded (3cde d2 (3ABc||
|:d2 D2 DFAd|(3BdB G2 E3d|(3cdc (3BcB AGFE|DEFG (3A^AB (3cB=A|
d2 (3DDD DFAd|(3BdB G2 E3d|(3cdc (3BcB ABce|1 d2 (3cde d2 (3ABc:|2 d2 (3cde d2 ag||
|:(3fbf de (3fbf de|fdad bdad|(3cBA eA fAeA|(3Bcd ef bage|
(3fbf de (3fbf de|fdad bdad|cdef bage|1 (3ded (3cde d2 ag:|2 (3ded (3cde d2AG||

